images/play-button.svg

<svg width="103" height="100" viewBox="0 0 103 100" fill="none" xmlns="http://www.w3.org/2000/svg">
<g clip-path="url(#clip0)">
<path d="M51.4923 0C23.456 0 0.727386 22.3857 0.727386 50C0.727386 77.6143 23.456 100 51.4923 100C79.5287 100 102.257 77.6143 102.257 50C102.257 22.3857 79.5287 0 51.4923 0ZM69.038 52.6504L43.6555 68.2754C43.1419 68.5912 42.5579 68.75 41.9739 68.75C41.4448 68.75 40.915 68.6203 40.4355 68.3578C39.4269 67.807 38.8011 66.7617 38.8011 65.625V34.375C38.8011 33.2383 39.4269 32.193 40.4355 31.6422C41.444 31.0883 42.6773 31.1219 43.6555 31.7246L69.038 47.3496C69.9652 47.9219 70.5292 48.9229 70.5292 50C70.5292 51.0771 69.9652 52.0783 69.038 52.6504Z" fill="#D4C17F"/>
</g>
<defs>
<clipPath id="clip0">
<rect width="101.53" height="100" fill="white" transform="translate(0.727386)"/>
</clipPath>
</defs>
</svg>

<svg width="103" height="100" fill="none" xmlns="http://www.w3.org/2000/svg"><g clip-path="url(#clip0)"><path d="M51.492 0C23.456 0 .727 22.386.727 50s22.729 50 50.765 50c28.037 0 50.765-22.386 50.765-50S79.529 0 51.492 0zm17.546 52.65L43.656 68.275a3.21 3.21 0 01-3.22.083 3.116 3.116 0 01-1.635-2.733v-31.25c0-1.137.626-2.182 1.634-2.733a3.206 3.206 0 013.22.083L69.038 47.35A3.118 3.118 0 0170.529 50a3.118 3.118 0 01-1.491 2.65z" fill="#D4C17F"/></g><defs><clipPath id="clip0"><path fill="#fff" transform="translate(.727)" d="M0 0h101.53v100H0z"/></clipPath></defs></svg>
